X: 136003
T: The CONNAUGHT MANS RAMBLES
Q: "Irish Jig."
R: Jig.
%R: jig
B: James Kerr "Merry Melodies" v.1 p.36 s.0 #3
Z: 2016 John Chambers <jc:trillian.mit.edu>
M: 6/8
L: 1/8
K: D	% and Bm
uA |\
FAA dAA | BAA dAA | FAA Afe | dBB uB2uA |\
FAA dAA | BAA def | afe uf2ue | dBB B2 :|
|: uf |\
fbb faa | fbb afe | fbb faa | fed e3 |\
fbb faa | fbb afe | afe f2e | dBB B2 H:|

%%sep 1 1 500
%%sep 1 1 500

